X: 38598
T: Stone Outside Dan Murphy's Door, The
R: waltz
M: 3/4
K: Gmajor
B/c/d/|:e2 d2 B2|G6|F2 E2 D2|E4 AB|c2 A2 G2|F2 E2 D2|d6-|d4 Bd|
e2 d2 B2|G6|F2 E2 D2|E4 AB|c2 A2 G2|F2 D2 E2|G6-|G4 A2|
B2 A2 B2|e2 d4|B2 G2 E2|D2 E2 G2-|G4 A2|B2 A2 B2|e2 d2-^c2-|d6-|d4 Bd|
e2 d2 B2|G6|F2 E2 D2|E4 AB|c2 A2 G2|F2 D2 E2|G6:|Bd[g4G4]|

